svg/part/heart_hand_fill.svg

<svg xmlns="http://www.w3.org/2000/svg" width="24" height="24" viewBox="0 0 24 24"><g fill="none" fill-rule="evenodd"><path d="M24,0 L24,24 L0,24 L0,0 L24,0 Z M12.5935,23.2578 L12.5819,23.2595 L12.5109,23.295 L12.4919,23.2987 L12.4767,23.295 L12.4057,23.2595 C12.3958,23.2564 12.387,23.259 12.3821,23.2649 L12.378,23.2758 L12.3609,23.7031 L12.3659,23.7235 L12.3769,23.7357 L12.4805,23.8097 L12.4953,23.8136 L12.5071,23.8097 L12.6107,23.7357 L12.6233,23.7197 L12.6267,23.7031 L12.6096,23.2758 C12.6076,23.2657 12.601,23.2593 12.5935,23.2578 Z M12.8584,23.1453 L12.8445,23.1473 L12.6598,23.2397 L12.6499,23.2499 L12.6472,23.2611 L12.6651,23.6906 L12.6699,23.7034 L12.6784,23.7105 L12.8793,23.8032 C12.8914,23.8069 12.9022,23.803 12.9078,23.7952 L12.9118,23.7812 L12.8777,23.1665 C12.8753,23.1546 12.8674,23.147 12.8584,23.1453 Z M12.143,23.1473 C12.1332,23.1424 12.1222,23.1453 12.1156,23.1526 L12.1099,23.1665 L12.0758,23.7812 C12.0751,23.7927 12.0828,23.8019 12.0926,23.8046 L12.1083,23.8032 L12.3092,23.7105 L12.3186,23.7024 L12.3225,23.6906 L12.3404,23.2611 L12.3372,23.2485 L12.3278,23.2397 L12.143,23.1473 Z"/><path fill="#09244B" d="M21.9979,10.3933 C22.0628,7.50113 20.5893,5.02239 18.4938,3.80149 C16.5339,2.65956 14.0719,2.65344 12.0000003,4.33872 C9.92814,2.65344 7.46612,2.65956 5.50615,3.80149 C3.41065,5.02239 1.9372,7.50113 2.00206,10.3933 C2.083,14.0024 4.89274,17.1869 9.68057,20.0311 C10.0123,20.2288 10.343,20.4291 10.6874,20.6041 C11.093,20.8101 11.5373,21.0002 12.0000003,21.0002 C12.4627,21.0002 12.907,20.8101 13.3125,20.6041 C13.657,20.4291 13.9877,20.2288 14.3194,20.0311 C19.1073,17.1869 21.917,14.0024 21.9979,10.3933 Z M12.8427,6.27186 C14.3513,4.74646 16.0933,4.71757 17.487,5.52958 C18.9314,6.37114 20.0476,8.15771 19.9984,10.3485 C19.9876,10.83 19.906,11.3178 19.7483,11.8113 C18.8528,12.415 17.6439,12.3071 16.8694,11.5326 L15.5758,10.239 C14.8519,9.51512 13.6783,9.51512 12.9544,10.239 L12.0887,11.1047 C11.2905,11.9029 9.99637,11.9029 9.19818,11.1047 C8.87554,10.782 8.87546,10.2589 9.19802,9.93621 L12.7152,6.4171 C12.7537,6.37851 12.7885,6.33756 12.8194,6.29471 C12.8273,6.28722 12.835,6.27961 12.8427,6.27186 Z"/></g></svg>

<svg xmlns="http://www.w3.org/2000/svg" width="24" height="24"><g fill="none" fill-rule="evenodd"><path d="M24 0v24H0V0zM12.594 23.258l-.012.002-.071.035-.02.004-.014-.004-.071-.036c-.01-.003-.019 0-.024.006l-.004.01-.017.428.005.02.01.013.104.074.015.004.012-.004.104-.074.012-.016.004-.017-.017-.427c-.002-.01-.009-.017-.016-.018m.264-.113-.014.002-.184.093-.01.01-.003.011.018.43.005.012.008.008.201.092c.012.004.023 0 .029-.008l.004-.014-.034-.614c-.003-.012-.01-.02-.02-.022m-.715.002a.023.023 0 0 0-.027.006l-.006.014-.034.614c0 .012.007.02.017.024l.015-.002.201-.093.01-.008.003-.011.018-.43-.003-.012-.01-.01z"/><path fill="#09244B" d="M21.998 10.393c.065-2.892-1.409-5.37-3.504-6.592-1.96-1.141-4.422-1.148-6.494.538-2.072-1.686-4.534-1.68-6.494-.538-2.095 1.221-3.569 3.7-3.504 6.592.081 3.61 2.89 6.794 7.679 9.638.331.198.662.398 1.006.573.406.206.85.396 1.313.396.463 0 .907-.19 1.313-.396.344-.175.675-.375 1.006-.573 4.788-2.844 7.598-6.029 7.679-9.638m-9.155-4.121c1.508-1.526 3.25-1.554 4.644-.742 1.444.841 2.56 2.628 2.511 4.818-.01.482-.092.97-.25 1.463a2.275 2.275 0 0 1-2.879-.278l-1.293-1.294a1.854 1.854 0 0 0-2.622 0l-.865.866a2.044 2.044 0 0 1-2.89 0 .826.826 0 0 1-.001-1.169l3.517-3.519c.039-.038.074-.08.104-.122a1.09 1.09 0 0 0 .024-.023"/></g></svg>
